X:1
T:Dans l'immense tristesse
T:A ma chère CLAIRE CROIZA
T:Lili Boulanger
T:Dans l'immense tristesse 
T:Bertha Galeron de Calonne
T:Creative Commons copyright waiver (CC0 1.0 Universal)
T:Creative Commons copyright waiver (CC0 1.0 Universal)
T:Creative Commons copyright waiver (CC0 1.0 Universal)
T:Creative Commons copyright waiver (CC0 1.0 Universal)
T:Creative Commons copyright waiver (CC0 1.0 Universal)
C:Lili Boulanger
Z:Bertha Galeron de Calonne
Z:Creative Commons copyright waiver (CC0 1.0 Universal)
%%score 1 { ( 2 4 6 7 ) | ( 3 5 ) }
L:1/8
Q:1/4=71
M:3/4
K:Db
V:1 treble nm="Chant\nVoice"
V:2 bass nm="Piano"
V:4 bass 
V:6 bass 
V:7 bass 
V:3 bass 
V:5 bass 
V:1
"^Lent" z6 | z6 |!p! (3z B, B, _C2 D E |!>(! F4-!>)! F F | z2 E2 F G | A G!>(! F3-!>)! F | %6
w: ||Dans l'im- men- se tris-|tes- * se|et dans le|lourd si- len- ce,|
 z E G2 (3_F F F | =C3- C/ z/ z F/ F/ | F F/ D/ D2- D z | (3z!<(! C C (3D D D!<)! A3/2- A/ | %10
w: Un pas se fait en-|ten- dre, u- ne|for- me s'a- van- ce,|Et vers une hum- ble tom- be|
 (3z E E (3F F F c2 |!mf! z G A3 E | (3G G G A2- A z | z F2"^cédez" F2 D | =C B, B,2- B, z | z6 | %16
w: el- le vient se pen- cher|O fem- me,|en ce lieu saint, _|que- viens- tu|donc cher- cher. _||
 z!<(! B, _C C D E!<)! |!<(! F F A2-!<)!"^sans rigueur" A/ G/ !tenuto!F/ E/ || %18
w: Pour- quoi viens- tu trou-|bler la paix _ du ci- me-|
[M:4/4]!p!!>(! F6-!>)! F z |"^intense"[Q:1/4=74] z !>!=D/ D/ !>!=G G/ D/ !>!F F !>!=E2- | %20
w: tiè- re?|As- tu donc un tré- sor ca- ché|
!<(! E =E-!<)! (3E E E =A4- ||[M:2/4]!>(! A2!>)! =D2 || %22
w: _ sous _ quel- que pier-|* re,|
[M:4/4]"^sans hâte"[Q:1/4=70] (3z =D D (3=G ^C C!<(! F3/2 F/ =E/- E/ E/ E/!<)! | %23
w: Ou viens- tu men- di- er, à l'om- bre des tom-|
 _E4- E/ z/"^grave, ému"[Q:1/4=68] _D- (3D D E ||[M:3/4]!>(! =C3!>)! B,- B,!mf! F | %25
w: beaux, _ Pau- * vre vi-|van- te, _ aux|
 =G3 F !tenuto!F !tenuto!E ||[M:4/4] !tenuto!D !tenuto!E !tenuto!=F2- F z z2 ||[M:2/4] z4 || %28
w: morts, un peu de|leur re- pos? _||
[M:4/4][Q:1/4=71] z2!p! =D2- D z =E/ E/ E/ E/ ||[M:3/4] =G2- G G/ G/ (3F F F || %30
w: Non, _ rien de tout ce-|la _ jus- qu’i- ci ne l’a-|
[M:4/4] A3 =G- G- G/ z/ z!p! F ||[M:3/4]"^expression" F2 (3F F F (3A A A | B F/ E/ F3 F | %33
w: mè- ne, _ _ (La|lune en cet in- stant é- clai-|rait cet- te scè- ne,)|
!mf! F2 F/ E/ F/ G/ A G | z3/2"^comme une plainte" F/ =G4- | G z z!<(! =G!<)! _B3/2!>(! _A/!>)! | %36
w: Et ce que cet- te fem- me,|( hé- las!|_ le coeur se|
 F4- F z | z2"^intense" F/ E/ F/ G/ A G | F E F2- F z | z2!p! C C D/ D/ E/ F/ | %40
w: fend, ) _|Ce que cet- te fem- me|vient cher- cher, _|c'est un frêle et gra- ci-|
 =G F F3"^expressif" A |!<(! B3!<)! A B B |!>(! c3!>)! B"^cédez" z!pp! G | %43
w: eux en- fant, qui|dort sur cet- te|tom- be, et|
 F/ F/ F/ E/!>(! A3!>)! =G | z3/2 F/ F F/ F/ A3/2 !tenuto!G/- | %45
w: qui, dans sa chi- mè- re,|De- puis qu'il a vu là|
 G!<(! F/ F/ F =D/!<)! _D/ _F3/2!>(! _E/!>)! | z!<(! (=A!<)!"^un peu animé" c3 B) | %47
w: _ dis- pa- raî- tre sa mè- re,|Doux ê- tre!|
 z"^avec tendresse" =A/ A/ _A3/2 A/[Q:1/4=66]!>(! =G/ G/"^cédez"[Q:1/4=62] _G/ G/!>)! | %48
w: s’i- ma- gine en son na- ïf es-|
[Q:1/4=68] F3 =D/ D/ E!<(! F/ =G/ | =A2- A A/ A/ =B A/ A/!<)! | c4- c z | z F!p! F F A3/2!<(! A/ | %52
w: poir Qu'el- le n'est que ca-|ché- e et qu'il va la re-|voir. _|Et l'on di- rait, le|
 _c3!<)! c B/ B/ B/ c/ |!>(! B4!>)! A z | z _B!<(! B B _d _c!<)! |!mp! B2 (3B B B =A A | %56
w: soir, en vi- si- on se-|crè- te,|Lors- que le blond en-|fant sent s’a- lour- dir sa|
 ^G2-!>(! G[Q:1/4=64]"^cédez" =G2[Q:1/4=60] _G-!>)! | %57
w: tê- * * te,|
 G/ z/!p!"^ému et tendre"[Q:1/4=66] F F/!<(! F/ =G/ A/!<)!!mp!!>(! B G!>)! | %58
w: _ Et que sa pe- tite âme est|
!p! F/ F/ F/ E/ F2- F z | z[Q:1/4=63] D/ D/ E-!mf! E/ E/ _G G | %60
w: las- se de gé- mir, _|Que sa mè- re re- vient chan-|
 F3"^retenu"[Q:1/4=58] !tenuto!F !tenuto!D[Q:1/4=50] !tenuto!_C |[Q:1/4=64] !tenuto!B,6- | B,4 z2 | %63
w: ter pour l'en- dor-|mir.|_|
 z6 | z6 |[Q:1/4=60] z6 | z6 | z6 | z6 |] %69
w: ||||||
V:2
!p! ([F,,B,,]2 [G,,_C,]3 [E,B,] | [=C,F,]4 [D,G,]2) | ([F,,B,,]2 [G,,_C,]3 [E,B,] | %3
 [=C,F,]4 [D,G,]2) | ([F,,B,,]2 [G,,_C,]3 [E,B,] | [=C,F,]4 [E,A,]2) | %6
!p! ([B,,E,]2 [D,G,]2 [=B,,=E,]2 | [=G,,C,]4)!<(! ([C,F,]2!<)! | %8
!<(! [D,_G,]3!<)! [E,A,][F,B,][CF]) |[K:treble]!<(! ([=G,C]2 [A,D]3 [EA])!<)! | %10
 ([B,E]2 [CF]3 [=Gc]) |!mf! (!tenuto![_Gd_g]2 !tenuto![Aea]3 !tenuto![EBe]) | %12
 (!tenuto![Gdg]2 !tenuto![Aea]3 !tenuto![EBe]) | (!>![Fcf]2!>(!"_cédez" !>![DAd]3 [_CG_c])!>)! | %14
[K:bass]!p! F6[K:treble] |"^comme une cloche" z2{/f'-} [ff']2 z2 | %16
[K:bass]"_plus expressif" x6[K:treble] |!<(! z2{/f'-} [ff']2!<)!"_suivez" z2 || %18
[M:4/4]!pp! z2!p!{/f'-} ([ff']4{/f'-} [ff']2) |!mf! z2{/f'-} [ff']4 z2 | z4 z2{/f'-} [ff']2 || %21
[M:2/4] z2{/f'-} [ff']2 ||[M:4/4] !tenuto![=D=G]2 (!tenuto![D^F]2 !tenuto![^C=F]2 !tenuto![=C=E]2 | %23
 !>![=B,^D=E]8) ||[M:3/4] (!tenuto![=G,C=G]2[K:bass] !tenuto![F,B,F]3 !tenuto![E,A,E]) | %25
 (!tenuto![=G,C=G]2 !tenuto![F,B,F]3 !tenuto![E,A,E]) ||[M:4/4] z4[K:treble] z!pp! [ff']2 z || %27
[M:2/4] z4 ||[M:4/4][K:bass]!pp! z2[K:treble] [Ff]4[K:bass] z2 || %29
[M:3/4]!<(! z2[K:treble] [Ff]2[K:bass] z2!<)! || %30
[M:4/4]!>(! z2[K:treble] [Ff]2[K:bass] z2[K:treble] [Ff]2!>)! || %31
[M:3/4]!pp! !arpeggio![Aef_ac']4!8va(! !arpeggio![d'b'_c''e'']2 | %32
 !arpeggio![abe'f'a'_c'']4 !arpeggio![d'b'_c''e'']2!8va)! | %33
!mf! !tenuto!.F !tenuto!.[F,F]2 !tenuto!.[=F,=F]2 !tenuto!.F | %34
"_douloureux" [F,=G,F=G]!<(! [F,G,FG]2 [F,G,FG]!<)!!>(! [=A,=B,=A=B][A,B,AB]!>)! | %35
 [F,=G,F=G]!<(! [F,G,FG]2 [F,G,FG]!<)!!>(! [=A,=B,=A=B][A,B,AB]!>)! | %36
 [F,=G,F=G]!<(! [F,G,FG]2 [F,G,FG]!<)!"_cédez" [=A,=B,=A=B][A,B,AB] |!f! F [F,F]2 [=F,=F]2 F | %38
!<(! F [F,F]2!<)!!>(! [=F,=F]2 F!>)! |!p! ([=Gc=g]4!>(! [dad']2)!>)! | ([=Gc=g]4!>(! [dad']2)!>)! | %41
 ([eae']4 [ae'a']2) | ([eae']4 [ae'a']2) |!pp! ([cfc'][dgd'][cfc'][eae'][Beb][=d=g=d']) | %44
 ([cfc'][_d_g_d'][cfc'][eae'][Beb][dgd']) | ([=A=d=a][B_eb][Ada][cfc'][^G^c^g][_B_e_b]) | %46
 ([=A=d=a][Beb]"_cresc.""^un peu animé"[Ada][cfc'][^G^c^g][_B_e_b]) |!pp! (=g2 =d2"^cédez" =A2) | %48
!mf!!p! ([=DF=A]!<(![EGB][DFA][FAc]!<)!!>(![_A_ce][G__Bd])!>)! | %49
 ([=DF=A]!<(![EGB][DFA][FAc]!<)!!>(![=G=Be][^F=A^c])!>)! | %50
!<(! ([=A=c=e][^G=B^d])([=B=d^f][_B_d=f])"^cédez"(!tenuto![c=e^g]!tenuto![=B^d=g])!<)! | %51
!p!"_plaintif"!<(! ([=d=e=d'=e']4!<)!!>(! [f=gf'=g']2)!>)! | %52
!<(! ([=d=e=d'=e']4!<)!!>(! [f=gf'=g']2)!>)! |!<(! ([=d=e=d'=e']4!<)!!>(! [f=gf'=g']2)!>)! | %54
!<(!!8va(! ([^f^g^f'^g']4!<)!!>(! [=a=b=a'=b']2)!>)! |!<(! ([^f^g^f'^g']4!<)! [=a=b=a'=b']2) | %56
!<(! (!tenuto![=bc'=b'c'']2 !tenuto![^b^c'^b'^c'']2!<)!!>(! !tenuto![=d'=e'=d''=e'']2)!8va)!!>)! | %57
!mf! z2!p! [ff']4 | z2!pp! [ff']4 |[K:bass]!f! z2!>(! z2[K:treble]!p! [ff']2!>)! | %60
[K:bass] x2 x2[K:treble]!pp!"_retenu"!8va(! [f'f'']2!8va)! | %61
"^doux""_expressif"!p! (!tenuto![=CF=c]2!<(! !tenuto![B,EB]2 !tenuto![=CF=c]!tenuto![CFc]!<)! | %62
!mp!!>(! !tenuto![B,EB]6)!>)! | %63
!p! (!tenuto![CFc]2!<(! !tenuto![B,EB]2 !tenuto![CFc]!<)!!tenuto![CFc] | !tenuto![B,EB]6) | %65
[K:bass]!pp!!>(! (!tenuto![F,C]2 !tenuto![E,B,]2 !tenuto![F,,C,]!tenuto![F,,C,]-!>)! | %66
 [F,,C,]!tenuto![E,,B,,]- [E,,B,,]2- [E,,B,,]) z | z6 | z6 |] %69
V:3
!8vb(! ([B,,,,F,,,B,,,]2 [_C,,,G,,,_C,,]3 [B,,,E,,B,,] | [F,,,=C,,F,,]4 [G,,,D,,G,,]2) | %2
 ([B,,,,F,,,B,,,]2 [_C,,,G,,,_C,,]3 [B,,,E,,B,,] | [F,,,=C,,F,,]4 [G,,,D,,G,,]2) | %4
 ([B,,,,F,,,B,,,]2 [_C,,,G,,,_C,,]3 [B,,,E,,B,,] | [F,,,=C,,F,,]4 [G,,,D,,G,,]2) | %6
 ([E,,,B,,,E,,]2 [G,,,D,,G,,]2 [=E,,,=B,,,=E,,]2 | [C,,,=G,,,C,,]4) ([F,,,C,,F,,]2 | %8
 [_G,,,D,,_G,,]3 [A,,,E,,A,,][B,,,F,,B,,]!8vb)![F,,C,F,]) | ([C,,=G,,C,]2 [D,,A,,D,]3 [A,,E,A,]) | %10
 ([E,,B,,E,]2 [F,,C,F,]3 [C,=G,C]) | %11
 (!arpeggio![_G,,D,_G,D]2 !arpeggio![A,,E,A,E]3 !arpeggio![E,,B,,E,B,]) | %12
 (!arpeggio![G,,D,G,D]2 !arpeggio![A,,E,A,E]3 !arpeggio![E,,B,,E,B,]) | %13
 (!arpeggio![F,,C,F,C]2 !arpeggio![D,,A,,D,A,]3 !arpeggio![_C,,G,,_C,G,]) | %14
!8vb(!!ped!{/B,,,,-} [B,,,,F,,,B,,,]2!8vb)! [_C,,G,,_C,]3 [B,,E,B,] | z2 F2 z2!ped-up! | %16
!ped! [B,,,F,,B,,]2!ped-up!!ped! [_C,,G,,_C,]3 [B,,E,B,]!ped-up! | z2 F2 z2 ||[M:4/4] z2 F4 F2 | %19
 z2 F4 z2 | (D,2 C,2) z2 F2 ||[M:2/4] z2 F2 ||[M:4/4] [=E,,=B,,]2 (_B,,2 =A,,2) (^F,2 | %23
 z2) [F,F]4 [F,F]2 || %24
[M:3/4]!8vb(! (!tenuto![F,,,C,,=G,,]2 !tenuto![B,,,F,,C,]3 !tenuto![D,,A,,E,]) | %25
 (!tenuto![F,,,C,,=G,,]2 !tenuto![B,,,F,,C,]3 !tenuto![D,,A,,E,])!8vb)! || %26
[M:4/4] z2!ped! !tenuto![=A,,^D,^F,]6 ||[M:2/4] x4!ped-up! ||[M:4/4]!8vb(! z2!8vb)! F,4!8vb(! z2 || %29
[M:3/4] z2!8vb)! F,2!8vb(! z2 ||[M:4/4] z2!8vb)! F,2 z2 F,2 || %31
[M:3/4] !arpeggio![F,A,_CE]4[K:treble] !arpeggio![dfa]2 | !arpeggio![A_cef]4 !arpeggio![dfa]2 | %33
[K:bass]"^expressif" (!tenuto![G,B,]2 !tenuto![_F,A,]3 !tenuto![__B,D]) |{/F,} !>!_G,4 !>!_A,2 | %35
{/F,} !>!_G,4 !>!_A,2 |{/F,} !>!_G,4 !>!_A,2 | (!tenuto![G,B,]2 !tenuto![_F,A,]3 !tenuto![__B,D]) | %38
 (!>![G,_B,]2 !>![_F,A,]3 !>![__E,G,]) |{/F,,,} ([F,,=C,=G,]4 [B,,F,C]2) | %40
 ([F,,C,=G,]4 [B,,F,C]2) | [A,E]4[I:staff -1] A2 |[I:staff +1] [A,E]4"^cédez"[I:staff -1] A2 | %43
[I:staff +1][K:treble]!ped! (!arpeggio![F,CFGBd][G,DG][F,CF][A,EA][E,B,E][=G,=D=G])!ped-up! | %44
!ped! (!arpeggio![F,CF_GB_d][G,DG][F,CF][A,EA][E,B,E][G,DG])!ped-up! | %45
[K:bass]!ped![I:staff -1] (!arpeggio![=E^G][I:staff +1][_E,B,_E][=D,=A,=D][F,CF][^C,^G,^C][_E,_B,_E])!ped-up! | %46
!ped![I:staff -1] (!arpeggio![=E^G][I:staff +1][E,B,E][=D,=A,=D][F,CF][^C,^G,^C][_E,_B,_E])!ped-up! | %47
 (C=B,) (^A,^G,) (=F,=E,) |!ped! ([G,B,=D]4 [G,=A,_DF]2)!ped-up! | %49
!ped! ([G,B,=D]4 [^F,=A,^C^D]2)!ped-up! | %50
!ped! [^F,=A,=B,=C=E]2!ped-up![K:treble]!ped! [=B,=D^F^G]2!ped! [C=E^F_B]2!ped-up! | %51
 ([_A_B]4 [A_c]2) | ([AB]4 [A_c]2) | ([AB]4 [A_c]2) | ([=A^c]4 [_B=d]2) | ([=A^c]4 [_B=d]2) | %56
 (!tenuto![=B^d]2 !tenuto![=c=e]2 !tenuto![_d=f]2) |[K:bass] z2!p! F4 | z2!pp! F4 | %59
!8vb(! z2 z2!p! F,2 | z2!8vb)! z2[K:treble]!pp! [Ff]2 | %61
[K:bass]!8vb(!{/B,,,,-} ([B,,,,F,,,B,,,]2!8vb)! [_C,,G,,_C,]3 [A,,E,A,] | %62
 z !tenuto![E,,B,,E,]2 [F,,=C,F,]- [F,,C,F,]2) | %63
!8vb(! (!tenuto![F,,,B,,,F,,]2!8vb)! !tenuto![G,,D,G,]3 !tenuto![D,A,D] | %64
 z !>![A,,A,]2 !tenuto![B,,F,B,]- [B,,F,B,]2) | %65
 !tenuto![C,,=G,,C,]2 !tenuto![B,,,F,,B,,]2!8vb(! !tenuto![F,,,B,,,]!tenuto![F,,,B,,,]- | %66
 [F,,,B,,,]!ped!!tenuto![E,,,A,,,]- [E,,,A,,,]2-!ppp! [E,,,A,,,] z!ped-up! | z6 | z6!8vb)! |] %69
V:4
 x6 | x6 | x6 | x6 | x6 | x6 | x6 | x6 | x6 |[K:treble] x6 | x6 | x6 | x6 | x6 | %14
[K:bass] ([F,B,]2 [G,_C]3[K:treble] [EB] | [=CF]4 [DG]2) | %16
[K:bass] ([F,B,]2!<(! [G,_C]3[K:treble] [EB]!<)! | [=CF]4 [EA]2 ||[M:4/4] [=A,=D]8) | %19
 [=B,F]4"_cresc." !tenuto!=B,4 | (=B,2 _B,2) [=A,=E]4 ||[M:2/4] !tenuto![=A,=D=G]4 || %22
[M:4/4] ^G,2 =G,4 x2 | x8 ||[M:3/4] x2[K:bass] x4 | x6 || %26
[M:4/4] z2!pp! !tenuto![=B,,=G,=A,=B,]6[K:treble] ||[M:2/4] x4 || %28
[M:4/4][K:bass] ([=A,,=D,]6[K:treble][K:bass] [=B,,=E,]2 || %29
[M:3/4] [=D,=G,]4)[K:treble][K:bass] ([C,F,]2 || %30
[M:4/4] [E,A,]4[K:treble][K:bass] [=D,=G,]4)[K:treble] ||[M:3/4] x4!8va(! x2 | x6!8va)! | x6 | x6 | %35
 x6 | x6 | x6 | x6 | z!<(! [Ff]2!<)! [Ff]2 [Ff] | z!<(! [Ff]2!<)! [Ff]2 [Ff] | %41
 z"_cresc." [Ff]2 [Ff]2 [Ff] | z!>(! [Ff]2 [Ff]2!>)! [Ff] | x6 | x6 | x6 | x6 | %47
 [F=Gf]!mf![=d=e] [C=Dc][^F_B] [=G,=A,=G][=D_G] | x6 | x6 | x6 | x6 | x6 | x6 |!8va(! x6 | x6 | %56
 x6!8va)! | ([Fcf]4!mf! [=Gd=g]2) | ([Fcf]4!mf!!<(! [=Gd=g]2)!<)! | %59
[K:bass] ([F,B,F]2 [E,B,E]4-)[K:treble] |[K:bass] [E,E]6[K:treble] | x6 | x6 | x6 | x6 | %65
[K:bass] x6 | x6 | x6 | x6 |] %69
V:5
!8vb(! x6 | x6 | x6 | x6 | x6 | x6 | x6 | x6 | x5!8vb)! x | x6 | x6 | x6 | x6 | x6 | %14
!8vb(! x2!8vb)! x4 | [F,,C,F,]4 [G,,D,G,]2 | x6 | [F,,=C,F,]4 [A,,E,A,]2 ||[M:4/4] [=D,,=A,,F,]8 | %19
 [=G,,=D,]4 [G,,_D,]4 | !>!_G,,4 !>![F,,^C,]4 ||[M:2/4] [F,,=B,,]4 ||[M:4/4] x2 _E,,4 [=D,,_A,,]2 | %23
 !>![^C,,^G,,^E,]8 ||[M:3/4]!8vb(! x6 | x6!8vb)! ||[M:4/4] z4 z [=F,,,=F,,]2 [F,,=F,]- || %27
[M:2/4] [F,,F,]2 [F,,,F,,]2 ||[M:4/4]!8vb(! ([=D,,,=A,,,=D,,]6!8vb)!!8vb(! [=E,,,=B,,,=E,,]2 || %29
[M:3/4] [=G,,,=D,,=G,,]4)!8vb)!!8vb(! ([F,,,C,,F,,]2 || %30
[M:4/4] [A,,,E,,A,,]4!8vb)! [=G,,,=D,,=G,,]4) ||[M:3/4] F[K:treble] (.F2 .F2 .F-) | %32
 F (.F2 .F2 .F) |[K:bass] ([E,,B,,]2 [D,,A,,]3 [G,,D,]) | x6 | x6 | x6 | %37
 ([E,,B,,]2 [D,,A,,]3 [G,,D,]) | ([E,,_B,,]2 [D,,A,,]3 [_C,,G,,]) | x6 | x6 | (D,4 [G,D]2) | %42
 (D,4 [G,D]2) |[K:treble] x6 | x6 |[K:bass] !arpeggio![=D,=A,=D] x5 | !arpeggio![=D,=A,=D] x5 | %47
 !>![_B,,=F,]2 !>![^F,,^C,]2 !>![_E,,_B,,]2 | [_A,,,_A,,]6 | [_A,,,_A,,]6 | x2[K:treble] x4 | %51
 z =F2 F2 F- | F F2 F2 F- | F F2 F2 F | F F2 F2 F- | F F2 F2 F- | F F2"^cédez" F2 F | %57
[K:bass] ([_D,_A,_E]4 [B,,F,D]2) | ([D,A,E]4 [B,,F,D]2) |!8vb(! [_G,,,D,,_G,,]2 [G,,,_C,,G,,]4- | %60
 [G,,,_C,,G,,]6!8vb)![K:treble] |[K:bass]!8vb(! x2!8vb)! x4 | x6 |!8vb(!{/B,,,,-} B,,,,6!8vb)! | %64
 x6 | x4!8vb(! x2 | x4 B,,,,2 | z2 B,,,,2 z2 | z2 B,,,,2!8vb)! z2 |] %69
V:6
 x6 | x6 | x6 | x6 | x6 | x6 | x6 | x6 | x6 |[K:treble] x6 | x6 | x6 | x6 | x6 | %14
[K:bass] x5[K:treble] x | x6 |[K:bass] x5[K:treble] x | x6 ||[M:4/4] x8 | !tenuto!_B4 !tenuto!=A4 | %20
 !tenuto!=A4 !tenuto!^G4 ||[M:2/4] x4 ||[M:4/4] x8 | z2{/f'-} [ff']4{/f'-} [ff']2 || %24
[M:3/4] x2[K:bass] x4 | x6 ||[M:4/4] x4[K:treble] x4 ||[M:2/4] x4 || %28
[M:4/4][K:bass] x2[K:treble] x4[K:bass] x2 ||[M:3/4] x2[K:treble] x2[K:bass] x2 || %30
[M:4/4] x2[K:treble] x2[K:bass] x2[K:treble] x2 ||[M:3/4] x4!8va(! x2 | x6!8va)! | x6 | x6 | x6 | %36
 x6 | x6 | x6 | x6 | x6 | x6 | x6 | x6 | x6 | x6 | x6 | x6 | x6 | x6 | x6 | x6 | x6 | x6 | %54
!8va(! x6 | x6 | x6!8va)! | x6 | x6 |[K:bass] x4[K:treble] x2 | %60
[K:bass] B,2 !tenuto!=A,4[K:treble] | x6 | x6 | x6 | x6 |[K:bass] x6 | x6 | x6 | x6 |] %69
V:7
 x6 | x6 | x6 | x6 | x6 | x6 | x6 | x6 | x6 |[K:treble] x6 | x6 | x6 | x6 | x6 | %14
[K:bass] x5[K:treble] x | x6 |[K:bass] x5[K:treble] x | x6 ||[M:4/4] x8 | x4 (F2 =E2) | =E4 x4 || %21
[M:2/4] x4 ||[M:4/4] x8 | x8 ||[M:3/4] x2[K:bass] x4 | x6 ||[M:4/4] x4[K:treble] x4 ||[M:2/4] x4 || %28
[M:4/4][K:bass] x2[K:treble] x4[K:bass] x2 ||[M:3/4] x2[K:treble] x2[K:bass] x2 || %30
[M:4/4] x2[K:treble] x2[K:bass] x2[K:treble] x2 ||[M:3/4] x4!8va(! x2 | x6!8va)! | x6 | x6 | x6 | %36
 x6 | x6 | x6 | x6 | x6 | x6 | x6 | x6 | x6 | x6 | x6 | x6 | x6 | x6 | x6 | x6 | x6 | x6 | %54
!8va(! x6 | x6 | x6!8va)! | x6 | x6 |[K:bass] x4[K:treble] x2 | %60
[K:bass] x4[K:treble]!8va(! x2!8va)! | x6 | x6 | x6 | x6 |[K:bass] x6 | x6 | x6 | x6 |] %69

